symbols/web/thumbs_up_down/materialsymbolsrounded/thumbs_up_down_wght100grad200_48px.svg

<svg xmlns="http://www.w3.org/2000/svg" height="48" width="48"><path d="M4.15 26.55q-1.35 0-2.35-.975T.8 23.2V11.3q0-.35.15-.7t.4-.6l7.4-7.35q.4-.35 1.025-.475.625-.125 1.175.125.25.2.5.625t.15.875l-1.55 6.6h9.45q1.95 0 2.975 1.525Q23.5 13.45 22.7 15.4l-4.35 10.15q-.25.4-.725.7-.475.3-.975.3Zm12.5-1.75 4.55-10.55v-.5q0-.7-.45-1.15-.45-.45-1.15-.45H8.4l1.85-8.6-7.7 7.8V23.2q0 .7.45 1.15.45.45 1.15.45Zm20.8 21.1q-.4-.2-.775-.65t-.275-1.1l1.55-6.65H28.4q-1.95 0-2.925-1.475-.975-1.475-.125-3.425l4.4-10.2q.15-.4.625-.725.475-.325.975-.325h12.5q1.4 0 2.375.975.975.975.975 2.375v11.9q0 .45-.15.75t-.35.55l-7.4 7.4q-.3.3-.875.5t-.975.1Zm-6.1-22.8L26.8 33.6v.55q0 .7.45 1.15.45.45 1.15.45h11.25l-1.9 8.55 7.7-7.75V24.7q0-.7-.45-1.15-.45-.45-1.15-.45Zm-28.8.1V11.35 24.8 23.2Zm42.9 1.5v11.85V23.1 24.7Z"/></svg>

<svg xmlns="http://www.w3.org/2000/svg" height="48" width="48"><path d="M4.15 26.55Q2.8 26.55 1.8 25.575Q0.8 24.6 0.8 23.2V11.3Q0.8 10.95 0.95 10.6Q1.1 10.25 1.35 10L8.75 2.65Q9.15 2.3 9.775 2.175Q10.4 2.05 10.95 2.3Q11.2 2.5 11.45 2.925Q11.7 3.35 11.6 3.8L10.05 10.4H19.5Q21.45 10.4 22.475 11.925Q23.5 13.45 22.7 15.4L18.35 25.55Q18.1 25.95 17.625 26.25Q17.15 26.55 16.65 26.55ZM16.65 24.8 21.2 14.25V13.75Q21.2 13.05 20.75 12.6Q20.3 12.15 19.6 12.15H8.4L10.25 3.55L2.55 11.35V23.2Q2.55 23.9 3 24.35Q3.45 24.8 4.15 24.8ZM37.45 45.9Q37.05 45.7 36.675 45.25Q36.3 44.8 36.4 44.15L37.95 37.5H28.4Q26.45 37.5 25.475 36.025Q24.5 34.55 25.35 32.6L29.75 22.4Q29.9 22 30.375 21.675Q30.85 21.35 31.35 21.35H43.85Q45.25 21.35 46.225 22.325Q47.2 23.3 47.2 24.7V36.6Q47.2 37.05 47.05 37.35Q46.9 37.65 46.7 37.9L39.3 45.3Q39 45.6 38.425 45.8Q37.85 46 37.45 45.9ZM31.35 23.1 26.8 33.6V34.15Q26.8 34.85 27.25 35.3Q27.7 35.75 28.4 35.75H39.65L37.75 44.3L45.45 36.55V24.7Q45.45 24 45 23.55Q44.55 23.1 43.85 23.1ZM2.55 23.2V11.35V12.15Q2.55 12.15 2.55 12.6Q2.55 13.05 2.55 13.75V14.25V24.8Q2.55 24.8 2.55 24.35Q2.55 23.9 2.55 23.2ZM45.45 24.7V36.55V35.75Q45.45 35.75 45.45 35.3Q45.45 34.85 45.45 34.15V33.6V23.1Q45.45 23.1 45.45 23.55Q45.45 24 45.45 24.7Z"/></svg>
